%
(Header)
(Generated by gcodetools from Inkscape.)
(Using default header. To add your own header create file "header" in the output dir.)
M3
(Header end.)
G21 (All units in mm)

(Start cutting path id: path6692)
(Change tool to Default tool)

G00 Z5.000000
G00 X75.370006 Y91.940720

G01 Z-1.000000 F100.0(Penetrate)
G01 X76.973622 Y21.916100 Z-1.000000 F400.000000
G00 Z5.000000

(End cutting path id: path6692)


(Start cutting path id: path6690)
(Change tool to Default tool)

G00 Z5.000000
G00 X19.777945 Y99.424270

G01 Z-1.000000 F100.0(Penetrate)
G01 X65.748304 Y99.958810 Z-1.000000 F400.000000
G00 Z5.000000

(End cutting path id: path6690)


(Start cutting path id: path6688)
(Change tool to Default tool)

G00 Z5.000000
G00 X12.294398 Y64.679230

G01 Z-1.000000 F100.0(Penetrate)
G01 X45.357142 Y83.910720 Z-1.000000 F400.000000
G01 X67.886460 Y79.111780 Z-1.000000
G00 Z5.000000

(End cutting path id: path6688)


(Start cutting path id: path6686)
(Change tool to Default tool)

G00 Z5.000000
G00 X40.624969 Y33.141420

G01 Z-1.000000 F100.0(Penetrate)
G01 X39.021350 Y55.057530 Z-1.000000 F400.000000
G01 X53.453905 Y59.333840 Z-1.000000
G01 X60.937451 Y38.486810 Z-1.000000
G00 Z5.000000

(End cutting path id: path6686)


(Start cutting path id: path6684)
(Change tool to Default tool)

G00 Z5.000000
G00 X15.119047 Y49.136910

G01 Z-1.000000 F100.0(Penetrate)
G01 X45.357142 Y83.910720 Z-1.000000 F400.000000
G01 X68.791666 Y52.916670 Z-1.000000
G00 Z5.000000

(End cutting path id: path6684)


(Footer)
M5
G00 X0.0000 Y0.0000
M2
(Using default footer. To add your own footer create file "footer" in the output dir.)
(end)
%